rospo-dark/16x16/actions/draw-spiral.svg

<svg height="16" viewBox="0 0 16 16" width="16" xmlns="http://www.w3.org/2000/svg"><path d="m2.8300781 0c-3.46709998 3.2319-3.8553831 8.8658375-.5644531 12.398438 2.9816 3.200699 8.156972 3.551699 11.388672.474609 2.901-2.7622 3.209683-7.5357001.376953-10.5000001-2.5145-2.63080003-6.835-2.90229315-9.5-.2832031-2.333 2.2928999-2.5602875 6.2108156-.1796875 8.6035152 2.0481 2.0585 5.5186812 2.243909 7.6132815.074219 1.7616-1.8247999 1.906443-4.8910311-.035156-6.7070311-1.5836-1.4812-4.2177224-1.5799806-5.7324224.1621093-1.1829 1.3605001-1.2373225 3.6019657.3046875 4.8222657.5642.44649 1.2571906.6538256 1.9628907.6035156.70562-.050305 1.46225-.4137513 1.9062502-1.1132813.29688-.4677399.400807-.9852025.310547-1.5390624-.0902-.5538601-.51161-1.2107876-1.1933598-1.4296876-.58215-.18689-.9094706-.1568449-1.2753906.046875-.27208.15147-.5048669.4178538-.5605468.8398438-.0442.33539.0395906.6749156.0878906 1.0097656-.54983-.43512-.5241494-1.3578687-.0371094-1.9179687.71104-.8178 2.0576812-.7651488 2.863281-.0117188 1.065.99607.980511 2.7817375-.037109 3.8359375-1.2714001 1.3171004-3.474472 1.1981444-4.763672-.0976562-1.5523-1.5602-1.3987975-4.2082407.1640625-5.7441406 1.833-1.8015 4.8943565-1.6092788 6.6601565.2382812 2.0308 2.1248 1.803913 5.6331844-.310547 7.646484-2.3948001 2.2802-6.3152876 2.015259-8.5546876-.388671-2.5055-2.6895005-2.2026132-7.0624818.4667968-9.5507818z" fill="#d3dae3"/></svg>

<?xml version="1.0" encoding="UTF-8" standalone="no"?>
<svg xmlns="http://www.w3.org/2000/svg" width="22" height="22" viewBox="0 0 22 22">
 <defs>
  <style type="text/css" id="current-color-scheme">
   .ColorScheme-Text { color:#d3dae3; } .ColorScheme-Highlight { color:#5294e2; }
  </style>
 </defs>
 <path style="fill:currentColor;opacity:1" class="ColorScheme-Text" transform="translate(3 3)" d="M 2.8300781 0 C -0.63702188 3.2319 -1.025305 8.8658375 2.265625 12.398438 C 5.247225 15.599137 10.422597 15.950137 13.654297 12.873047 C 16.555297 10.110847 16.86398 5.3373469 14.03125 2.3730469 C 11.51675 -0.25775313 7.19625 -0.52924625 4.53125 2.0898438 C 2.19825 4.3827437 1.9709625 8.3006594 4.3515625 10.693359 C 6.3996625 12.751859 9.8702437 12.937268 11.964844 10.767578 C 13.726444 8.9427781 13.871287 5.8765469 11.929688 4.0605469 C 10.346088 2.5793469 7.7119656 2.4805663 6.1972656 4.2226562 C 5.0143656 5.5831563 4.9599431 7.8246219 6.5019531 9.0449219 C 7.0661531 9.4914119 7.7591437 9.6987475 8.4648438 9.6484375 C 9.1704638 9.5981325 9.9270938 9.2346862 10.371094 8.5351562 C 10.667974 8.0674163 10.771901 7.5499537 10.681641 6.9960938 C 10.591441 6.4422337 10.170031 5.7853062 9.4882812 5.5664062 C 8.9061312 5.3795162 8.5788106 5.4095613 8.2128906 5.6132812 C 7.9408106 5.7647512 7.7080237 6.031135 7.6523438 6.453125 C 7.6081438 6.788515 7.6919344 7.1280406 7.7402344 7.4628906 C 7.1904044 7.0277706 7.216085 6.1050219 7.703125 5.5449219 C 8.414165 4.7271219 9.7608062 4.7797731 10.566406 5.5332031 C 11.631406 6.5292731 11.546917 8.3149406 10.529297 9.3691406 C 9.2578969 10.686241 7.054825 10.567285 5.765625 9.2714844 C 4.213325 7.7112844 4.3668275 5.0632437 5.9296875 3.5273438 C 7.7626875 1.7258438 10.824044 1.918065 12.589844 3.765625 C 14.620644 5.890425 14.393757 9.3988094 12.279297 11.412109 C 9.8844969 13.692309 5.9640094 13.427368 3.7246094 11.023438 C 1.2191094 8.3339375 1.5219962 3.9609562 4.1914062 1.4726562 L 2.8300781 0 z"/>
</svg>
